X: 18
T:Lively Jig, Ilmington
M:4/4
L:1/8
R:Hornpipe
A:Ilmington
P:A(A2B2)2A
K:F
P:A
C2|FGAF  EFGE|FGAF  C2FE|DGGA BAGF |EGc=B c2C2|
FGAF  EFGE|FGAF  C2FE|DdcB AGFE |F2F2  F2  ||
P:B
GF|EGC=B c2GF|EGC=B c2Bc|defe dc=BA|GAGF  G4  |
ABAG  FAc2|GAGF  EGc2|cged cBAG |F2F2  F2  ||
